X:635
T: Peadar's New Calf
C: BB
R: reel
Q: 1/8=350
M: 4/4
L: 1/8
K: D
D|"D"FAdc "Bm"BF (3FEF|"A"GEAG "D"FD (3DED|"A"CEGE "D"FAdf|"G"gfed "A"e2 ce|
"Bm"fdBd "F#m"AF (3FEF|"Bm"BAFD "Em"EDEG|"A7"AGEA "D"FAdB|"A"AFGE "D"D3 :|
e|"Bm"fdBd bafe|"G"dB (3BAB dBGB|"D"Adfa "Bm"bfaf|"Em"gfed "A"e2 ce |
"Bm"fdBd "F#m"AF (3FEF|"G"GBdB "D"Af (3fef|"Em"gfed "Bm"fdBd|"A"AFGE "D"D3 :|
%%%%%%%%%%%%%%%%%%%%%%%%%%%%%%%%%%%%%%%%%%%
